symbols/web/monitor_heart/materialsymbolsoutlined/monitor_heart_wght500_48px.svg

<svg xmlns="http://www.w3.org/2000/svg" height="48" width="48"><path d="M3.7 19.5v-8.4q0-1.4 1.025-2.4t2.375-1h33.8q1.4 0 2.4 1t1 2.4v8.4h-3.4v-8.4H7.1v8.4Zm3.4 20.8q-1.35 0-2.375-1.025T3.7 36.9v-8.4h3.4v8.4h33.8v-8.4h3.4v8.4q0 1.35-1 2.375T40.9 40.3ZM20 33.5q.4 0 .775-.2t.575-.6L28 19.4l2.65 5.3q.2.4.575.6.375.2.775.2h12.3v-3H32.95l-3.6-7.15q-.4-.75-1.35-.75-.95 0-1.35.75L20 28.6l-2.65-5.3q-.2-.4-.575-.6-.375-.2-.775-.2H3.7v3h11.35l3.6 7.2q.2.4.575.6.375.2.775.2Zm4-9.5Z"/></svg>

<svg xmlns="http://www.w3.org/2000/svg" height="48" width="48"><path d="M3.7 19.5V11.1Q3.7 9.7 4.725 8.7Q5.75 7.7 7.1 7.7H40.9Q42.3 7.7 43.3 8.7Q44.3 9.7 44.3 11.1V19.5H40.9V11.1Q40.9 11.1 40.9 11.1Q40.9 11.1 40.9 11.1H7.1Q7.1 11.1 7.1 11.1Q7.1 11.1 7.1 11.1V19.5ZM7.1 40.3Q5.75 40.3 4.725 39.275Q3.7 38.25 3.7 36.9V28.5H7.1V36.9Q7.1 36.9 7.1 36.9Q7.1 36.9 7.1 36.9H40.9Q40.9 36.9 40.9 36.9Q40.9 36.9 40.9 36.9V28.5H44.3V36.9Q44.3 38.25 43.3 39.275Q42.3 40.3 40.9 40.3ZM20 33.5Q20.4 33.5 20.775 33.3Q21.15 33.1 21.35 32.7L28 19.4L30.65 24.7Q30.85 25.1 31.225 25.3Q31.6 25.5 32 25.5H44.3V22.5H32.95L29.35 15.35Q28.95 14.6 28 14.6Q27.05 14.6 26.65 15.35L20 28.6L17.35 23.3Q17.15 22.9 16.775 22.7Q16.4 22.5 16 22.5H3.7V25.5H15.05L18.65 32.7Q18.85 33.1 19.225 33.3Q19.6 33.5 20 33.5ZM24 24Q24 24 24 24Q24 24 24 24Q24 24 24 24Q24 24 24 24Q24 24 24 24Q24 24 24 24Q24 24 24 24Q24 24 24 24Z"/></svg>
